!!!OTL: Dr. Luthers Glaubens - und Heldenlied. (1529.)
!!!ARE: Europa, Mitteleuropa, Deutschland
!!!SCT: A0629
!!!TXL: @@GMH
!!!YEM: Copyright 1995, estate of Helmut Schaffrath.
**kern	**text
*M4/2	*
*met(c|)	*
*clefC3	*
*k[b-]	*
*F:ion	*
!LO:TX:a:t=jon. tr.	!
{2f	Ein
=1	=1
1f	ſe-
1f	-ſte
=2	=2
1c	burg
2d	iſt
*lig	*
1f	vn-
=3-	=3-
.	.
2e	.
*Xlig	*
1d	-ſer
=4	=4
1c	Gott,
2r}	.
{2f	Ein
=5	=5
1e	gu-
1d	-te
=6	=6
1c	wehr
2d	vnd
1B-	waf-
=7-	=7-
.	.
2A	.
1G	.
=8	=8
1F	-fen,}
2r}	.
{2f	Er
=9	=9
1f	hilfft
1f	vnns
=10	=10
1c	frey
2d	aus
*lig	*
1f	al-
=11-	=11-
.	.
2e	.
*Xlig	*
1d	-ler
=12	=12
1c	not,
2r}	.
{2f	die
=13	=13
1e	vns
1d	ytʒt
=14	=14
1c	hat
2d	be-
1B-	-trof-
=15-	=15-
.	.
2A	.
1G	.
=16	=16
1F	-fen,}
2r}	.
{2F	Der
=17	=17
2.A	alt-
4B-	.
2c/	.
1d	-bo̊-
=18-	=18-
.	.
1c	.
2B-	-ſe
=19	=19
1c}	feind,
{1F	mit
=20	=20
1c	ernſt
1d	ers
=21	=21
1e	ytʒt
1f	meint,
=22	=22
1r}	.
{1e	gros
=23	=23
1f	macht
1e	vnd
=24	=24
1d	viel
1c}	liſt,
=25	=25
{1d	ſein
1d	grauſäm
=26	=26
2c	.
1d	rü-
2c	-ſtüng
=27	=27
1A	iſt,
2r}	.
{2f	auff
=28	=28
1e	erd
1d	iſt
=29	=29
1c	nicht
2d	ſeins
1B-	glei-
=30-	=30-
.	.
2A	.
1G	.
=31	=31
1.F/ll}	-chen.
==	==
!!!GTL: Geistliche Volkslieder
!!!AGN: Romanze, Ballade, Lied, religioeses Lied
!! Strassburger Gsgb 1531
!!!ONB: ESAC (Essen Associative Code) Database: ALTDEU
!!!AMT: simple quadruple
!!!AIN: vox
!!!EED: Helmut Schaffrath
!!!EEV: 1.0
!!!RDF**kern: l = terminal long
!!!AMD: Ionian
!!!URL-scan: https://rosdok.uni-rostock.de/mcrviewer/recordIdentifier/rosdok_ppn738218359/iview2/phys_0809.iview2?x=113.63509606070716&y=2171.8968173144385&scale=0.7106933083589261&rotation=0&layout=singlePageLayout&logicalDiv=log_0007
!!!ENC: Anna Maria Matuszewska
!!!EEV: 2024/25/03
*-	*-
